packages/icons/svg/Outline/checkmark-square.svg

<svg fill="none" height="24" viewBox="0 0 24 24" width="24" xmlns="http://www.w3.org/2000/svg"><path clip-rule="evenodd" d="m14.7046 8.39457-3.784 4.96903-1.63301-2.086c-.341-.436-.969-.512-1.404-.171-.435.34-.512.969-.171 1.403l2.43101 3.107c.19.242.48.383.788.383h.007c.309-.001.601-.147.788-.394l4.569-6.00003c.335-.44.25-1.066-.19-1.401s-1.068-.249-1.401.19zm4.2954 9.60553c0 .552-.449 1-1 1h-11.99998c-.551 0-1-.448-1-1v-12.00003c0-.552.449-1 1-1h11.99998c.551 0 1 .448 1 1zm-1-15.0001h-12c-1.654 0-3 1.346-3 3v12c0 1.654 1.346 3 3 3h12c1.654 0 3-1.346 3-3v-12c0-1.654-1.346-3-3-3z" fill="#6b7280" fill-rule="evenodd"/></svg>

<svg width="24" height="24" viewBox="0 0 24 24" fill="none" xmlns="http://www.w3.org/2000/svg">
<g id="Icon/Outline/checkmark-square">
<path id="Mask" fill-rule="evenodd" clip-rule="evenodd" d="M14.7046 8.3945L10.9206 13.3635L9.2876 11.2775C8.9466 10.8415 8.3186 10.7655 7.8836 11.1065C7.4486 11.4465 7.3716 12.0755 7.7126 12.5095L10.1436 15.6165C10.3336 15.8585 10.6236 15.9995 10.9316 15.9995H10.9386C11.2476 15.9985 11.5396 15.8525 11.7266 15.6055L16.2956 9.6055C16.6306 9.1655 16.5456 8.5395 16.1056 8.2045C15.6656 7.8695 15.0376 7.9555 14.7046 8.3945ZM19 18C19 18.552 18.551 19 18 19H6C5.449 19 5 18.552 5 18V6C5 5.448 5.449 5 6 5H18C18.551 5 19 5.448 19 6V18ZM18 3H6C4.346 3 3 4.346 3 6V18C3 19.654 4.346 21 6 21H18C19.654 21 21 19.654 21 18V6C21 4.346 19.654 3 18 3Z" fill="#000000"/>
</g>
</svg>
